src/extras-openmoji/healthcare/E30C.svg

<?xml version="1.0" encoding="UTF-8"?>
<svg id="emoji" xmlns="http://www.w3.org/2000/svg" viewBox="0 0 72 72">
  <g id="grid">
    <path d="m68,4v64H4V4h64m4-4H0v72h72V0Z" fill="#b3b3b3"/>
    <path d="m12.923,10.9583h46.1539c1.0621,0,1.9231.861,1.9231,1.9231h0v46.1538c0,1.0621-.861,1.9231-1.9231,1.9231H12.9231c-1.0621,0-1.9231-.861-1.9231-1.9231h0V12.8813c0-1.062.861-1.923,1.923-1.923h0Z" fill="none" stroke="#00a5ff" stroke-miterlimit="10" stroke-width=".1"/>
    <rect x="16" y="4" width="40" height="64" rx="2.2537" ry="2.2537" fill="none" stroke="#00a5ff" stroke-miterlimit="10" stroke-width=".1"/>
    <rect x="4" y="16" width="64" height="40" rx="2.2537" ry="2.2537" fill="none" stroke="#00a5ff" stroke-miterlimit="10" stroke-width=".1"/>
    <circle cx="36" cy="36" r="29" fill="none" stroke="#00a5ff" stroke-miterlimit="10" stroke-width=".1"/>
  </g>
  <g id="color">
    <path d="m40.98,32.1777v6.4111c-.0471,3.0625-2.5675,5.5071-5.63,5.4606h-.71c-3.13.4462-3,4.1706-3,4.1706h-5.66s.13-3.7244-3-4.1706h-1.37c-3.0625.0465-5.5829-2.3981-5.63-5.4606v-6.4111h25Z" fill="#92d3f5"/>
    <path d="m16.7838,31.3463s-.2656-10.404.3914-11.6241,2.2396-2.8335,3.3659-2.7397,15.264.0391,15.264.0391c0,0,3.7181.2348,4.3444,4.0313.5355,3.2465,0,10.3325,0,10.3325l-23.3656-.0391Z" fill="#fff"/>
    <rect x="24.018" y="48.2203" width="9.3598" height="4.777" fill="#d0cfce"/>
  </g>
  <g id="line">
    <path d="m35.3523,16.1351h-13.7386c-3.11,0-5.6311,2.5211-5.6311,5.6311h0v16.523c.0002,3.1099,2.5212,5.6308,5.6311,5.6308h1.3647c3.13.46,3,4.3,3,4.3h5.66s-.13-3.84,3-4.3h.7139c3.11,0,5.6311-2.5211,5.6311-5.6311v-16.5226c0-3.11-2.5211-5.6311-5.6311-5.6312Z" fill="none" stroke="#000" stroke-linecap="round" stroke-linejoin="round" stroke-width="2"/>
    <rect x="24.018" y="48.2203" width="9.3598" height="4.777" fill="none" stroke="#000" stroke-linecap="round" stroke-linejoin="round" stroke-width="2"/>
    <polyline points="28.698 52.997 28.698 60.958 28.698 65.029" fill="none" stroke="#000" stroke-linecap="round" stroke-linejoin="round" stroke-width="2"/>
    <line x1="15.9826" y1="36.2852" x2="24.018" y2="36.2852" fill="none" stroke="#000" stroke-linecap="round" stroke-linejoin="round" stroke-width="2"/>
    <line x1="15.9826" y1="32.1777" x2="21.327" y2="32.1777" fill="none" stroke="#000" stroke-linecap="round" stroke-linejoin="round" stroke-width="2"/>
    <line x1="15.9826" y1="28.0703" x2="24.018" y2="28.0703" fill="none" stroke="#000" stroke-linecap="round" stroke-linejoin="round" stroke-width="2"/>
    <line x1="15.9826" y1="23.9628" x2="21.327" y2="23.9628" fill="none" stroke="#000" stroke-linecap="round" stroke-linejoin="round" stroke-width="2"/>
    <polyline points="23.257 16 28.483 10.958 34.385 16.135" fill="none" stroke="#000" stroke-linecap="round" stroke-linejoin="round" stroke-width="2"/>
    <path d="m24.7312,9.8667c.4563,2.2588,2.6573,3.7201,4.9161,3.2639,1.6455-.3324,2.9315-1.6184,3.2639-3.2639h23.0888v55.1626" fill="none" stroke="#000" stroke-linecap="round" stroke-linejoin="round" stroke-width="2"/>
    <path d="m40.98,32.1777v6.4111c-.0471,3.0625-2.5675,5.5071-5.63,5.4606h-.71c-3.13.4462-3,4.1706-3,4.1706h-5.66s.13-3.7244-3-4.1706h-1.37c-3.0625.0465-5.5829-2.3981-5.63-5.4606v-6.4111h25Z" fill="none" stroke="#000" stroke-linecap="round" stroke-linejoin="round" stroke-width="2"/>
  </g>
</svg>

<svg id="emoji" viewBox="0 0 72 72" xmlns="http://www.w3.org/2000/svg">
  <g id="grid">
    <path fill="#b3b3b3" d="M68,4V68H4V4H68m4-4H0V72H72V0Z"/>
    <path fill="none" stroke="#00a5ff" stroke-miterlimit="10" stroke-width="0.1" d="M12.923,10.9583H59.0769A1.9231,1.9231,0,0,1,61,12.8814V59.0352a1.9231,1.9231,0,0,1-1.9231,1.9231H12.9231A1.9231,1.9231,0,0,1,11,59.0352V12.8813A1.923,1.923,0,0,1,12.923,10.9583Z"/>
    <rect x="16" y="4" rx="2.2537" width="40" height="64" fill="none" stroke="#00a5ff" stroke-miterlimit="10" stroke-width="0.1"/>
    <rect x="16" y="4" rx="2.2537" width="40" height="64" transform="translate(72) rotate(90)" fill="none" stroke="#00a5ff" stroke-miterlimit="10" stroke-width="0.1"/>
    <circle cx="36" cy="36" r="29" fill="none" stroke="#00a5ff" stroke-miterlimit="10" stroke-width="0.1"/>
  </g>
  <g id="color">
    <path fill="#92d3f5" d="M40.98,32.1777v6.4111a5.5465,5.5465,0,0,1-5.63,5.4606h-.71c-3.13.4462-3,4.1706-3,4.1706H25.98s.13-3.7244-3-4.1706H21.61a5.5465,5.5465,0,0,1-5.63-5.4606V32.1777Z"/>
    <rect x="24.018" y="48.2203" width="9.3598" height="4.777" fill="#d0cfce"/>
  </g>
  <g id="line">
    <path fill="none" stroke="#000" stroke-linecap="round" stroke-linejoin="round" stroke-width="2" d="M35.3523,16.1351H21.6137a5.6311,5.6311,0,0,0-5.6311,5.6312V38.2892A5.6311,5.6311,0,0,0,21.6137,43.92h1.3647c3.13.46,3,4.3,3,4.3h5.66s-.13-3.84,3-4.3h.7139a5.6311,5.6311,0,0,0,5.6311-5.6311V21.7663A5.6312,5.6312,0,0,0,35.3523,16.1351Z"/>
    <rect x="24.018" y="48.2203" width="9.3598" height="4.777" fill="none" stroke="#000" stroke-linecap="round" stroke-linejoin="round" stroke-width="2"/>
    <polyline fill="none" stroke="#000" stroke-linecap="round" stroke-linejoin="round" stroke-width="2" points="28.698 52.997 28.698 60.958 28.698 65.029"/>
    <line x1="15.9826" x2="24.018" y1="36.2852" y2="36.2852" fill="none" stroke="#000" stroke-linecap="round" stroke-linejoin="round" stroke-width="2"/>
    <line x1="15.9826" x2="21.327" y1="32.1777" y2="32.1777" fill="none" stroke="#000" stroke-linecap="round" stroke-linejoin="round" stroke-width="2"/>
    <line x1="15.9826" x2="24.018" y1="28.0703" y2="28.0703" fill="none" stroke="#000" stroke-linecap="round" stroke-linejoin="round" stroke-width="2"/>
    <line x1="15.9826" x2="21.327" y1="23.9628" y2="23.9628" fill="none" stroke="#000" stroke-linecap="round" stroke-linejoin="round" stroke-width="2"/>
    <polyline fill="none" stroke="#000" stroke-linecap="round" stroke-linejoin="round" stroke-width="2" points="23.257 16 28.483 10.958 34.385 16.135"/>
    <path fill="none" stroke="#000" stroke-linecap="round" stroke-linejoin="round" stroke-width="2" d="M24.7312,9.8667a4.1726,4.1726,0,0,0,8.18,0H56V65.0293"/>
    <path fill="none" stroke="#000" stroke-linecap="round" stroke-linejoin="round" stroke-width="2" d="M40.98,32.1777v6.4111a5.5465,5.5465,0,0,1-5.63,5.4606h-.71c-3.13.4462-3,4.1706-3,4.1706H25.98s.13-3.7244-3-4.1706H21.61a5.5465,5.5465,0,0,1-5.63-5.4606V32.1777Z"/>
  </g>
</svg>
